public/assets/routes_avatar/beginDataCollect.svg

<?xml version="1.0" encoding="UTF-8"?>
<svg width="60px" height="60px" viewBox="0 0 60 60" version="1.1" xmlns="http://www.w3.org/2000/svg" xmlns:xlink="http://www.w3.org/1999/xlink">
    <!-- Generator: Sketch 49.3 (51167) - http://www.bohemiancoding.com/sketch -->
    <title>基础信息-期初数据采集</title>
    <desc>Created with Sketch.</desc>
    <defs>
        <path d="M44.375,42.6506024 L43.4375,42.6506024 L43.4375,18.6987952 C43.4375,17.2144578 42.3125,16 40.9375,16 L38.4375,16 C37.0625,16 35.9375,17.2144578 35.9375,18.6987952 L35.9375,42.6506024 L34.0625,42.6506024 L34.0625,24.7710843 C34.0625,23.286747 32.9375,22.0722892 31.5625,22.0722892 L29.0625,22.0722892 C27.6875,22.0722892 26.5625,23.286747 26.5625,24.7710843 L26.5625,42.6506024 L24.6875,42.6506024 L24.6875,30.8433735 C24.6875,29.3590361 23.5625,28.1445783 22.1875,28.1445783 L19.6875,28.1445783 C18.3125,28.1445783 17.1875,29.3590361 17.1875,30.8433735 L17.1875,42.6506024 L15.625,42.6506024 C15.25,42.6506024 15,42.9204819 15,43.3253012 C15,43.7301205 15.25,44 15.625,44 L44.375,44 C44.75,44 45,43.7301205 45,43.3253012 C45,42.9204819 44.75,42.6506024 44.375,42.6506024 Z M37.1875,18.6987952 C37.1875,17.9566265 37.75,17.3493976 38.4375,17.3493976 L40.9375,17.3493976 C41.625,17.3493976 42.1875,17.9566265 42.1875,18.6987952 L42.1875,42.313253 L37.1875,42.313253 L37.1875,18.6987952 Z M27.8125,24.7710843 C27.8125,24.0289156 28.375,23.4216867 29.0625,23.4216868 L31.5625,23.4216868 C32.25,23.4216868 32.8125,24.0289157 32.8125,24.7710843 L32.8125,42.313253 L27.8125,42.313253 L27.8125,24.7710843 Z M18.4375,30.8433735 C18.4375,30.1012048 19,29.4939759 19.6875,29.4939759 L22.1875,29.4939759 C22.875,29.4939759 23.4375,30.1012048 23.4375,30.8433735 L23.4375,42.313253 L18.4375,42.313253 L18.4375,30.8433735 Z" id="path-1"></path>
    </defs>
    <g id="icon" stroke="none" stroke-width="1" fill="none" fill-rule="evenodd">
        <g id="基础信息-期初数据采集">
            <circle id="Oval-Copy" fill="#2A98FF" cx="30" cy="30" r="30"></circle>
            <g id="Shape" fill-rule="nonzero">
                <use fill="#FFFFFF" fill-rule="evenodd" xlink:href="#path-1"></use>
                <path stroke="#FFFFFF" stroke-width="0.3" d="M17.0375,42.5006024 L17.0375,30.8433735 C17.0375,29.2786486 18.2269848,27.9945783 19.6875,27.9945783 L22.1875,27.9945783 C23.6480152,27.9945783 24.8375,29.2786486 24.8375,30.8433735 L24.8375,42.5006024 L26.4125,42.5006024 L26.4125,24.7710843 C26.4125,23.2063595 27.6019848,21.9222892 29.0625,21.9222892 L31.5625,21.9222892 C33.0230152,21.9222892 34.2125,23.2063595 34.2125,24.7710843 L34.2125,42.5006024 L35.7875,42.5006024 L35.7875,18.6987952 C35.7875,17.1340703 36.9769848,15.85 38.4375,15.85 L40.9375,15.85 C42.3980152,15.85 43.5875,17.1340703 43.5875,18.6987952 L43.5875,42.5006024 L44.375,42.5006024 C44.8355152,42.5006024 45.15,42.8400944 45.15,43.3253012 C45.15,43.810508 44.8355152,44.15 44.375,44.15 L15.625,44.15 C15.1644848,44.15 14.85,43.810508 14.85,43.3253012 C14.85,42.8400944 15.1644848,42.5006024 15.625,42.5006024 L17.0375,42.5006024 Z M37.3375,42.163253 L42.0375,42.163253 L42.0375,18.6987952 C42.0375,18.037014 41.5394848,17.4993976 40.9375,17.4993976 L38.4375,17.4993976 C37.8355152,17.4993976 37.3375,18.037014 37.3375,18.6987952 L37.3375,42.163253 Z M27.9625,42.163253 L32.6625,42.163253 L32.6625,24.7710843 C32.6625,24.1093032 32.1644848,23.5716868 31.5625,23.5716868 L29.0625,23.5716868 C28.4605152,23.5716867 27.9625,24.1093032 27.9625,24.7710843 L27.9625,42.163253 Z M18.5875,42.163253 L23.2875,42.163253 L23.2875,30.8433735 C23.2875,30.1815924 22.7894848,29.6439759 22.1875,29.6439759 L19.6875,29.6439759 C19.0855152,29.6439759 18.5875,30.1815923 18.5875,30.8433735 L18.5875,42.163253 Z"></path>
            </g>
        </g>
    </g>
</svg>

<svg width="60" height="60" xmlns="http://www.w3.org/2000/svg" xmlns:xlink="http://www.w3.org/1999/xlink"><defs><path d="M44.375 42.65h-.938V18.7c0-1.485-1.124-2.699-2.5-2.699h-2.5c-1.374 0-2.5 1.214-2.5 2.699V42.65h-1.874V24.77c0-1.484-1.126-2.699-2.5-2.699h-2.5c-1.375 0-2.5 1.215-2.5 2.7V42.65h-1.875V30.843c0-1.484-1.125-2.698-2.5-2.698h-2.5c-1.375 0-2.5 1.214-2.5 2.698v11.808h-1.563c-.375 0-.625.27-.625.674 0 .405.25.675.625.675h28.75c.375 0 .625-.27.625-.675s-.25-.674-.625-.674zM37.187 18.7c0-.742.563-1.35 1.25-1.35h2.5c.688 0 1.25.608 1.25 1.35v23.614h-5V18.7zm-9.374 6.072c0-.742.562-1.35 1.25-1.35h2.5c.687 0 1.25.608 1.25 1.35v17.542h-5V24.771zm-9.375 6.072c0-.742.562-1.349 1.25-1.349h2.5c.687 0 1.25.607 1.25 1.35v11.47h-5v-11.47z" id="a"/></defs><g fill="none" fill-rule="evenodd"><circle fill="#2A98FF" cx="30" cy="30" r="30"/><g fill-rule="nonzero"><use fill="#FFF" fill-rule="evenodd" xlink:href="#a"/><path stroke="#FFF" stroke-width=".3" d="M17.038 42.5V30.844c0-1.564 1.189-2.848 2.65-2.848h2.5c1.46 0 2.65 1.284 2.65 2.848v11.658h1.575V24.77c0-1.565 1.189-2.849 2.65-2.849h2.5c1.46 0 2.65 1.284 2.65 2.85V42.5h1.575V18.699c0-1.565 1.189-2.849 2.65-2.849h2.5c1.46 0 2.65 1.284 2.65 2.849V42.5h.787c.46 0 .775.34.775.824 0 .486-.314.825-.775.825h-28.75c-.46 0-.775-.34-.775-.825 0-.485.314-.824.775-.824h1.413zm20.3-.337h4.7V18.7c0-.662-.499-1.2-1.1-1.2h-2.5c-.602 0-1.1.538-1.1 1.2v23.464zm-9.376 0h4.7V24.771c0-.662-.498-1.2-1.1-1.2h-2.5c-.601 0-1.1.538-1.1 1.2v17.392zm-9.375 0h4.7v-11.32c0-.661-.498-1.199-1.1-1.199h-2.5c-.601 0-1.1.538-1.1 1.2v11.32z"/></g></g></svg>
